static/logos/intercom-wordmark-color.svg

<svg width="100" height="23" viewBox="0 0 100 23" fill="none" xmlns="http://www.w3.org/2000/svg">
<g clip-path="url(#clip0_1_2308)">
<path d="M34.4147 7.9173C34.4147 7.44021 34.0467 7.04877 33.5316 7.04877C33.0164 7.04877 32.6484 7.44021 32.6484 7.9173V14.9634C32.6484 15.4405 33.0164 15.832 33.5316 15.832C34.059 15.832 34.4147 15.4405 34.4147 14.9634V7.9173Z" fill="#081D34"/>
<path d="M43.1092 7.04877C42.5941 7.04877 42.2383 7.44021 42.2383 7.9173V10.9266L42.2874 13.6179L41.2203 11.0978L39.822 8.23536C39.3927 7.34235 38.9021 7.04877 38.2029 7.04877C37.1726 7.04877 36.7188 7.6971 36.7188 8.6268V14.9634C36.7188 15.4405 37.0744 15.832 37.5897 15.832C38.1048 15.832 38.4605 15.4405 38.4605 14.9634L38.4482 11.9909L38.4114 8.94486L39.5521 11.7339L40.9627 14.6453C41.4043 15.575 41.8704 15.8442 42.5817 15.8442C43.5017 15.8442 43.98 15.2815 43.98 14.2417V7.9173C43.98 7.44021 43.6244 7.04877 43.1092 7.04877Z" fill="#081D34"/>
<path d="M50.4914 8.84701L52.4907 8.89595C52.9568 8.90817 53.3248 8.55343 53.3248 8.03965C53.3248 7.52587 52.9568 7.17111 52.4907 7.17111L46.7012 7.15887C46.2474 7.15887 45.8672 7.51363 45.8672 8.02741C45.8672 8.54119 46.2474 8.89595 46.7012 8.88371L48.7128 8.84701V14.9634C48.7128 15.4405 49.0807 15.832 49.596 15.832C50.1234 15.832 50.4914 15.4405 50.4914 14.9634V8.84701Z" fill="#081D34"/>
<path d="M56.4175 15.7219H60.7227C61.1765 15.7219 61.5445 15.3793 61.5445 14.9022C61.5445 14.4129 61.1765 14.0704 60.7227 14.0704L56.9817 14.0826V12.0397H60.2198C60.6614 12.0397 61.0171 11.7094 61.0171 11.2569C61.0171 10.792 60.6614 10.4617 60.2198 10.4617L56.9817 10.4862V8.79804H60.7227C61.1765 8.79804 61.5445 8.45552 61.5445 7.96621C61.5445 7.47689 61.1765 7.14661 60.7227 7.14661L56.4297 7.15883C55.6446 7.15883 55.2031 7.59921 55.2031 8.38212V14.4986C55.2031 15.2814 55.6446 15.7219 56.4175 15.7219Z" fill="#081D34"/>
<path d="M68.5602 12.2355C69.7254 11.9297 70.4124 11.0245 70.4124 9.82564C70.4124 8.49226 69.5415 7.15887 67.4563 7.15887H64.7578C63.9729 7.15887 63.5312 7.59926 63.5312 8.38216V14.9634C63.5312 15.4405 63.8993 15.832 64.439 15.832C64.9664 15.832 65.3466 15.4405 65.3466 14.9634L65.3344 12.6636H66.8185L68.3271 15.3794C68.5725 15.7953 69.0876 15.9665 69.5661 15.7219C70.0444 15.465 70.1793 14.9512 69.9217 14.5353L68.5602 12.2355ZM65.3344 8.78585H67.4686C68.1922 8.78585 68.6461 9.23846 68.6461 9.91127C68.6461 10.5718 68.2168 11.0612 67.4931 11.0612H65.3344V8.78585Z" fill="#081D34"/>
<path d="M75.8324 15.8808C77.6233 15.8808 78.7763 15.0735 79.1687 13.7646C79.3773 13.0183 78.9358 12.4801 78.2734 12.4801C77.8685 12.4801 77.5987 12.688 77.4393 13.1407C77.194 13.8258 76.5929 14.2539 75.7343 14.2539C74.3729 14.2539 73.7841 13.3364 73.7841 11.4281C73.7841 9.55647 74.3851 8.66347 75.7343 8.66347C76.5807 8.66347 77.0714 9.01822 77.378 9.83782C77.5497 10.3027 77.8318 10.5106 78.2488 10.5106C78.8866 10.5106 79.3527 9.99685 79.1565 9.28735C78.764 7.84387 77.6233 7.0365 75.7834 7.0365C73.2567 7.0365 71.9688 8.57784 71.9688 11.4281C71.9688 14.3028 73.2567 15.8808 75.8324 15.8808Z" fill="#081D34"/>
<path d="M84.5478 15.8565C87.1482 15.8565 88.4361 14.2661 88.4361 11.4281C88.4361 8.56564 87.1114 6.98761 84.5478 6.98761C81.9721 6.98761 80.6841 8.59011 80.6719 11.4281C80.6719 14.2784 81.9843 15.8565 84.5478 15.8565ZM84.5478 14.2173C83.1005 14.2173 82.475 13.2998 82.475 11.4281C82.475 9.53204 83.1128 8.61458 84.5356 8.61458C85.9707 8.61458 86.6453 9.53204 86.6331 11.4281C86.6331 13.312 85.9952 14.2173 84.5478 14.2173Z" fill="#081D34"/>
<path d="M99.8531 8.57784C99.8531 7.61144 99.2521 7.0365 98.3199 7.0365C97.5594 7.0365 96.9829 7.45242 96.7008 8.40658L95.7564 11.477L95.1308 13.6912L94.5298 11.477L93.524 8.40658C93.2418 7.51358 92.7512 7.0365 91.8926 7.0365C90.9481 7.0365 90.3594 7.59921 90.3594 8.57784V14.9634C90.3594 15.4405 90.7028 15.832 91.2057 15.832C91.7086 15.832 92.0521 15.4405 92.0521 14.9634L92.0398 11.8807L91.954 8.57784L92.923 11.9541L93.9533 14.9389C94.174 15.5995 94.5911 15.8197 95.1308 15.8197C95.6337 15.8197 96.0384 15.6362 96.2469 14.9634L97.2282 11.9541L98.2708 8.55338L98.1727 11.8807V14.9634C98.1727 15.4405 98.5284 15.832 99.0191 15.832C99.5219 15.832 99.8654 15.4405 99.8654 14.9634L99.8531 8.57784Z" fill="#081D34"/>
<path d="M19.8542 12.5841C19.8542 12.788 19.7738 12.9835 19.6308 13.1276C19.4878 13.2717 19.2938 13.3528 19.0915 13.3528C18.8892 13.3528 18.6952 13.2717 18.5522 13.1276C18.4091 12.9835 18.3288 12.788 18.3288 12.5841V5.71718C18.3288 5.51333 18.4091 5.31782 18.5522 5.17368C18.6952 5.02953 18.8892 4.94855 19.0915 4.94855C19.2938 4.94855 19.4878 5.02953 19.6308 5.17368C19.7738 5.31782 19.8542 5.51333 19.8542 5.71718V12.5841ZM19.5894 17.342C19.4886 17.4436 16.6523 19.8258 11.4524 19.8258C6.25248 19.8258 3.43508 17.4564 3.31533 17.3547C3.23986 17.2906 3.17769 17.212 3.1324 17.1237C3.0871 17.0352 3.05956 16.9387 3.05136 16.8395C3.04317 16.7404 3.05446 16.6406 3.08462 16.5458C3.11477 16.4512 3.16319 16.3633 3.22708 16.2875C3.35872 16.134 3.54523 16.0392 3.74595 16.0237C3.94667 16.0082 4.14532 16.0734 4.29858 16.2049C4.3427 16.2367 6.87646 18.3075 11.446 18.3075C16.0156 18.3075 18.5683 16.224 18.5936 16.2049C18.7485 16.0745 18.9478 16.0102 19.149 16.0257C19.3504 16.0411 19.5377 16.135 19.6713 16.2875C19.7999 16.4387 19.8641 16.635 19.85 16.8336C19.8358 17.0322 19.7444 17.2173 19.5957 17.3483L19.5894 17.342ZM3.0443 5.71718C3.0557 5.51269 3.14696 5.32104 3.29813 5.18416C3.44931 5.04727 3.6481 4.97627 3.85107 4.98666C4.03923 4.99743 4.21677 5.07803 4.34945 5.21293C4.48214 5.34782 4.56056 5.52746 4.5696 5.71718V12.5714C4.5696 12.7752 4.48925 12.9707 4.34623 13.1148C4.2032 13.2591 4.00922 13.34 3.80695 13.34C3.60468 13.34 3.4107 13.2591 3.26767 13.1148C3.12465 12.9707 3.0443 12.7752 3.0443 12.5714V5.71718ZM6.87016 4.19262C6.88155 3.98811 6.97282 3.79648 7.12399 3.6596C7.27517 3.52271 7.47396 3.45171 7.67693 3.4621C7.86509 3.47287 8.04263 3.55347 8.17531 3.68837C8.30799 3.82326 8.38642 4.00289 8.39546 4.19262V14.3564C8.39546 14.5603 8.31511 14.7558 8.17209 14.8999C8.02906 15.044 7.83508 15.125 7.63281 15.125C7.43054 15.125 7.23656 15.044 7.09353 14.8999C6.95051 14.7558 6.87016 14.5603 6.87016 14.3564V4.19262ZM10.7149 3.81147C10.7149 3.60762 10.7953 3.41212 10.9383 3.26797C11.0813 3.12382 11.2753 3.04284 11.4775 3.04284C11.6798 3.04284 11.8738 3.12382 12.0169 3.26797C12.1599 3.41212 12.2402 3.60762 12.2402 3.81147V14.8646C12.2402 15.0684 12.1599 15.2639 12.0169 15.4081C11.8738 15.5523 11.6798 15.6332 11.4775 15.6332C11.2753 15.6332 11.0813 15.5523 10.9383 15.4081C10.7953 15.2639 10.7149 15.0684 10.7149 14.8646V3.81147ZM14.4967 4.19262C14.4967 3.98877 14.577 3.79326 14.7201 3.64911C14.8631 3.50497 15.0571 3.42398 15.2593 3.42398C15.4616 3.42398 15.6556 3.50497 15.7986 3.64911C15.9416 3.79326 16.022 3.98877 16.022 4.19262V14.3564C16.022 14.5603 15.9416 14.7558 15.7986 14.8999C15.6556 15.044 15.4616 15.125 15.2593 15.125C15.0571 15.125 14.8631 15.044 14.7201 14.8999C14.577 14.7558 14.4967 14.5603 14.4967 14.3564V4.19262ZM20.0621 6.34336e-05H2.86781C2.49316 -0.00244644 2.1217 0.0695479 1.77469 0.211924C1.42768 0.3543 1.11195 0.564263 0.845559 0.829788C0.579174 1.09532 0.36737 1.41118 0.222277 1.75933C0.0771834 2.10746 0.00164952 2.48102 0 2.85863V20.01C0.00164952 20.3876 0.0771834 20.7612 0.222277 21.1093C0.36737 21.4574 0.579174 21.7733 0.845559 22.0388C1.11195 22.3043 1.42768 22.5143 1.77469 22.6567C2.1217 22.7991 2.49316 22.871 2.86781 22.8685H20.0621C20.4362 22.871 20.8072 22.7993 21.1538 22.6573C21.5004 22.5153 21.8158 22.3059 22.0821 22.041C22.3484 21.7762 22.5604 21.4611 22.7058 21.1136C22.8514 20.7663 22.9275 20.3934 22.9299 20.0164V2.85863C22.9283 2.48156 22.853 2.10853 22.7082 1.7608C22.5636 1.41308 22.3524 1.09749 22.0866 0.832045C21.8209 0.566603 21.5059 0.356508 21.1596 0.213756C20.8133 0.0710042 20.4425 -0.00160867 20.0684 6.34336e-05" fill="#081D34"/>
</g>
<defs>
<clipPath id="clip0_1_2308">
<rect width="100" height="22.8686" fill="white"/>
</clipPath>
</defs>
</svg>

<svg xmlns="http://www.w3.org/2000/svg" width="278.261" height="64" fill="none" viewBox="0 0 100 23"><g fill="#081D34" clip-path="url(#a)"><path d="M34.415 7.917a.86.86 0 0 0-.883-.868.86.86 0 0 0-.884.868v7.046a.86.86 0 0 0 .884.869.853.853 0 0 0 .883-.869V7.917ZM43.11 7.049a.85.85 0 0 0-.872.868v3.01l.05 2.69-1.068-2.52-1.398-2.862c-.43-.893-.92-1.186-1.62-1.186-1.03 0-1.483.648-1.483 1.578v6.336a.85.85 0 0 0 .87.869.85.85 0 0 0 .872-.869l-.013-2.972-.037-3.046 1.141 2.789 1.41 2.911c.442.93.908 1.2 1.62 1.2.92 0 1.398-.564 1.398-1.603V7.917a.85.85 0 0 0-.87-.868ZM50.491 8.847l2 .049c.466.012.834-.343.834-.856 0-.514-.368-.869-.834-.869L46.7 7.16c-.454 0-.834.355-.834.868 0 .514.38.869.834.857l2.012-.037v6.116a.86.86 0 0 0 .883.869c.527 0 .895-.392.895-.869V8.847ZM56.417 15.722h4.306a.806.806 0 0 0 .822-.82.808.808 0 0 0-.822-.832l-3.741.013V12.04h3.238c.441 0 .797-.33.797-.783a.78.78 0 0 0-.797-.795l-3.238.024V8.798h3.74a.808.808 0 0 0 .822-.832c0-.49-.367-.82-.821-.82l-4.293.013c-.785 0-1.227.44-1.227 1.223V14.5c0 .782.442 1.223 1.214 1.223ZM68.56 12.236c1.165-.306 1.852-1.212 1.852-2.41 0-1.334-.87-2.667-2.956-2.667h-2.698c-.785 0-1.227.44-1.227 1.223v6.581c0 .478.368.869.908.869.527 0 .908-.392.908-.869l-.013-2.3h1.484l1.51 2.716c.245.416.76.588 1.238.343.478-.257.613-.77.356-1.187l-1.362-2.3Zm-3.226-3.45h2.135c.723 0 1.177.452 1.177 1.125 0 .66-.43 1.15-1.153 1.15h-2.159V8.786ZM75.832 15.88c1.791 0 2.944-.807 3.337-2.115.208-.747-.233-1.285-.896-1.285-.404 0-.674.208-.834.66-.245.686-.846 1.114-1.705 1.114-1.361 0-1.95-.918-1.95-2.826 0-1.872.601-2.765 1.95-2.765.847 0 1.337.355 1.644 1.175.172.465.454.673.87.673.639 0 1.105-.514.908-1.224-.392-1.443-1.533-2.25-3.373-2.25-2.526 0-3.814 1.54-3.814 4.391 0 2.875 1.288 4.453 3.863 4.453ZM84.548 15.857c2.6 0 3.888-1.59 3.888-4.429 0-2.862-1.325-4.44-3.888-4.44-2.576 0-3.864 1.602-3.876 4.44 0 2.85 1.312 4.428 3.876 4.428Zm0-1.64c-1.448 0-2.073-.917-2.073-2.789 0-1.896.638-2.813 2.06-2.813 1.436 0 2.11.917 2.098 2.813 0 1.884-.638 2.79-2.085 2.79ZM99.853 8.578c0-.967-.6-1.541-1.533-1.541-.76 0-1.337.415-1.62 1.37l-.944 3.07-.625 2.214-.601-2.214-1.006-3.07c-.282-.893-.773-1.37-1.631-1.37-.945 0-1.534.562-1.534 1.54v6.386c0 .478.344.869.847.869s.846-.392.846-.869l-.012-3.082-.086-3.303.969 3.376 1.03 2.985c.221.66.638.88 1.178.88.503 0 .907-.183 1.116-.856l.981-3.009 1.043-3.4-.098 3.327v3.082c0 .478.355.869.846.869.503 0 .846-.392.846-.869l-.012-6.385ZM19.854 12.584c0 .204-.08.4-.223.544a.76.76 0 0 1-1.302-.544V5.717c0-.204.08-.4.223-.543a.76.76 0 0 1 1.079 0c.143.144.223.34.223.543v6.867Zm-.265 4.758c-.1.102-2.937 2.484-8.137 2.484-5.2 0-8.017-2.37-8.137-2.471a.755.755 0 0 1-.23-.81.758.758 0 0 1 .142-.258.76.76 0 0 1 1.072-.082c.044.032 2.577 2.103 7.147 2.103s7.122-2.084 7.148-2.103a.77.77 0 0 1 1.077.083.76.76 0 0 1-.075 1.06l-.007-.006ZM3.044 5.717a.777.777 0 0 1 .254-.533.76.76 0 0 1 1.051.029.771.771 0 0 1 .22.504v6.854c0 .204-.08.4-.223.544a.76.76 0 0 1-1.078 0 .771.771 0 0 1-.224-.544V5.717ZM6.87 4.193a.777.777 0 0 1 .254-.533.76.76 0 0 1 1.051.029.771.771 0 0 1 .22.504v10.163c0 .204-.08.4-.223.544a.76.76 0 0 1-1.302-.544V4.193Zm3.845-.382c0-.203.08-.399.223-.543a.76.76 0 0 1 1.079 0c.143.144.223.34.223.543v11.054c0 .203-.08.399-.223.543a.76.76 0 0 1-1.302-.543V3.81Zm3.782.382c0-.204.08-.4.223-.544a.76.76 0 0 1 1.079 0c.143.144.223.34.223.544v10.163c0 .204-.08.4-.223.544a.76.76 0 0 1-1.302-.544V4.193ZM20.062 0H2.868A2.83 2.83 0 0 0 .846.83 2.873 2.873 0 0 0 0 2.859V20.01a2.89 2.89 0 0 0 .846 2.029 2.848 2.848 0 0 0 2.022.83h17.194a2.83 2.83 0 0 0 2.02-.828 2.87 2.87 0 0 0 .848-2.025V2.86a2.888 2.888 0 0 0-.843-2.027A2.847 2.847 0 0 0 20.068 0"/></g><defs><clipPath id="a"><path fill="#fff" d="M0 0h100v22.869H0z"/></clipPath></defs></svg>
